packages/foundations/assets/icons/functional/images/navigation/menu_14.svg

<svg width="14" height="14" viewBox="0 0 14 14" fill="none" xmlns="http://www.w3.org/2000/svg">
<g clip-path="url(#clip0_187_91)">
<path fill-rule="evenodd" clip-rule="evenodd" d="M2.09998 6.99999C2.09998 6.60624 2.40623 6.29999 2.79998 6.29999H8.90314C9.29682 6.29999 9.60314 6.60624 9.60314 6.99999C9.60314 7.37183 9.29682 7.69999 8.90314 7.69999H2.79998C2.40623 7.69999 2.09998 7.37183 2.09998 6.99999ZM2.09998 10.5C2.09998 10.1062 2.40623 9.79999 2.79998 9.79999H11.2C11.5937 9.79999 11.9 10.1062 11.9 10.5C11.9 10.8937 11.5937 11.2 11.2 11.2H2.79998C2.40623 11.2 2.09998 10.8937 2.09998 10.5ZM2.09998 3.49999C2.09998 3.10624 2.40623 2.79999 2.79998 2.79999H11.2C11.5937 2.79999 11.9 3.10624 11.9 3.49999C11.9 3.89374 11.5937 4.19999 11.2 4.19999H2.79998C2.40623 4.19999 2.09998 3.89374 2.09998 3.49999Z" fill="#1A1C1F"/>
</g>
<defs>
<clipPath id="clip0_187_91">
<rect width="14" height="14" fill="white"/>
</clipPath>
</defs>
</svg>

<svg xmlns="http://www.w3.org/2000/svg" width="14" height="14" fill="none"><g clip-path="url(#a)"><path fill="#1A1C1F" fill-rule="evenodd" d="M2.1 7c0-.394.306-.7.7-.7h6.103c.394 0 .7.306.7.7 0 .372-.306.7-.7.7H2.8a.705.705 0 0 1-.7-.7m0 3.5c0-.394.306-.7.7-.7h8.4c.394 0 .7.306.7.7s-.306.7-.7.7H2.8a.69.69 0 0 1-.7-.7m0-7c0-.394.306-.7.7-.7h8.4c.394 0 .7.306.7.7s-.306.7-.7.7H2.8a.69.69 0 0 1-.7-.7" clip-rule="evenodd"/></g><defs><clipPath id="a"><path fill="#fff" d="M0 0h14v14H0z"/></clipPath></defs></svg>
